X:1
T:The Sporting Boy's -- Jig
R:jig
B:Ryan's Mammoth Collection
N: 88 460
Z: Contributed by Ray Davies,  ray:davies99.freeserve.co.uk
M:6/8
L:1/8
K:D
uA|\
"tr"Td3 fef | dBB B2d | cAc efd | cAA ABc |
"tr"Td3 fef | dBB B2g | fga efg | fdd d2 :|
|:uA|\
"tr"Td3 fed | faa a2f | "tr"Td3  fed | cee cee |
"tr"Td3 fed | (f/g/a).a a2g | (f/g/a).f ede | fdd d2 :|
